assets/Latin cross/Flat/latin_cross_flat.svg

<svg width="32" height="32" viewBox="0 0 32 32" fill="none" xmlns="http://www.w3.org/2000/svg">
<path d="M30 26C30 28.2091 28.2091 30 26 30H6C3.79086 30 2 28.2091 2 26V6C2 3.79086 3.79086 2 6 2H26C28.2091 2 30 3.79086 30 6V26Z" fill="#8D65C5"/>
<path d="M16 6C15.4477 6 15 6.44772 15 7V12H10C9.44772 12 9 12.4477 9 13C9 13.5523 9.44772 14 10 14H15V25C15 25.5523 15.4477 26 16 26C16.5523 26 17 25.5523 17 25V14H22C22.5523 14 23 13.5523 23 13C23 12.4477 22.5523 12 22 12H17V7C17 6.44772 16.5523 6 16 6Z" fill="white"/>
</svg>

<svg xmlns="http://www.w3.org/2000/svg" width="32" height="32" fill="none"><path fill="#8D65C5" d="M30 26a4 4 0 0 1-4 4H6a4 4 0 0 1-4-4V6a4 4 0 0 1 4-4h20a4 4 0 0 1 4 4v20Z"/><path fill="#fff" d="M16 6a1 1 0 0 0-1 1v5h-5a1 1 0 1 0 0 2h5v11a1 1 0 1 0 2 0V14h5a1 1 0 1 0 0-2h-5V7a1 1 0 0 0-1-1Z"/></svg>
